X:2023
T:Kirree wooar ny vreechyn 
T:Breeches
C:Traditional
S:George Moore, Balladoole 
Z:Clague collection
B:Kiaull Vannin #23 
L:1/4
M:4/4 
Q:70 
K:G 
d|dG GA|B c dc|AF GA|c B G G|cB c d|e f dG| 
cB c d|ec B/d/ g|dd c B|A Bc d|B c dA|c B G|| 
